X: 39450
T: Tarantella Di Sicilia
R: jig
M: 6/8
K: Bminor
|:zDC|B,zB,3D|FzF2zF|ECD EFE|DCB, zDC|
B,zB,3D|FzF2=F^F|AGF EDC|B,3:|
|:fgf|ecd efe|dBc ded|c^AB cde|fdB f2f|
ecd efe|dBc ded|cgf edc|B2z:|
|:zFG|=AFD AFD|AFD ABA|GFE GFE|AFD zFG|
AFD AFD|AFD A^GA|cBA =GFE|D3:|

